asset/images/document.svg

<?xml version="1.0" encoding="UTF-8"?> <svg xmlns="http://www.w3.org/2000/svg" width="20" height="20" viewBox="0 0 20 20" fill="none"> <path d="M2.50002 7.50002H7.50002C7.72103 7.50002 7.933 7.41222 8.08928 7.25594C8.24556 7.09966 8.33335 6.8877 8.33335 6.66669V1.66669H16.6684C17.1275 1.66669 17.5 2.04585 17.5 2.49335V17.5067C17.4998 17.726 17.4125 17.9363 17.2574 18.0913C17.1022 18.2463 16.8918 18.3334 16.6725 18.3334H3.32752C3.21808 18.3326 3.10987 18.3103 3.00906 18.2677C2.90825 18.2251 2.81681 18.1631 2.73997 18.0852C2.66313 18.0072 2.60239 17.9149 2.56122 17.8135C2.52005 17.7121 2.49925 17.6036 2.50002 17.4942V7.50002ZM2.50002 5.83335L6.66669 1.66919V5.83335H2.50002Z" fill="#605348"></path> </svg>

<?xml version="1.0" encoding="utf-8"?>
<!-- Generator: Adobe Illustrator 25.2.3, SVG Export Plug-In . SVG Version: 6.00 Build 0)  -->
<svg version="1.1" id="Layer_1" xmlns="http://www.w3.org/2000/svg" xmlns:xlink="http://www.w3.org/1999/xlink" x="0px" y="0px"
	 viewBox="0 0 20 20" style="enable-background:new 0 0 20 20;" xml:space="preserve">
<style type="text/css">
	.st0{fill:#222222;}
</style>
<path class="st0" d="M2.5,7.5h5c0.2,0,0.4-0.1,0.6-0.2c0.2-0.2,0.2-0.4,0.2-0.6v-5h8.3c0.5,0,0.8,0.4,0.8,0.8v15
	c0,0.2-0.1,0.4-0.2,0.6c-0.2,0.2-0.4,0.2-0.6,0.2H3.3c-0.1,0-0.2,0-0.3-0.1c-0.1,0-0.2-0.1-0.3-0.2c-0.1-0.1-0.1-0.2-0.2-0.3
	c0-0.1-0.1-0.2-0.1-0.3V7.5z M2.5,5.8l4.2-4.2v4.2H2.5z"/>
</svg>
